weather-icons/wi-day-cloudy.svg

<?xml version="1.0" encoding="UTF-8" standalone="no"?>
<svg
   xmlns:dc="http://purl.org/dc/elements/1.1/"
   xmlns:cc="http://creativecommons.org/ns#"
   xmlns:rdf="http://www.w3.org/1999/02/22-rdf-syntax-ns#"
   xmlns:svg="http://www.w3.org/2000/svg"
   xmlns="http://www.w3.org/2000/svg"
   xmlns:sodipodi="http://sodipodi.sourceforge.net/DTD/sodipodi-0.dtd"
   xmlns:inkscape="http://www.inkscape.org/namespaces/inkscape"
   width="100px"
   height="100px"
   viewBox="0 0 100 100"
   version="1.1"
   id="svg5"
   sodipodi:docname="wi-day-cloudy.svg"
   inkscape:version="1.0.2 (e86c870879, 2021-01-15)">
  <metadata
     id="metadata11">
    <rdf:RDF>
      <cc:Work
         rdf:about="">
        <dc:format>image/svg+xml</dc:format>
        <dc:type
           rdf:resource="http://purl.org/dc/dcmitype/StillImage" />
      </cc:Work>
    </rdf:RDF>
  </metadata>
  <defs
     id="defs9" />
  <sodipodi:namedview
     pagecolor="#ffffff"
     bordercolor="#666666"
     borderopacity="1"
     objecttolerance="10"
     gridtolerance="10"
     guidetolerance="10"
     inkscape:pageopacity="0"
     inkscape:pageshadow="2"
     inkscape:window-width="1920"
     inkscape:window-height="1016"
     id="namedview7"
     showgrid="false"
     inkscape:zoom="7.94"
     inkscape:cx="50"
     inkscape:cy="49.48835"
     inkscape:window-x="0"
     inkscape:window-y="0"
     inkscape:window-maximized="1"
     inkscape:current-layer="svg5" />
  <g
     id="g70">
    <g
       id="surface1"
       style="fill:#ffff00">
      <path
         id="path2"
         style="fill:#ffff00;fill-opacity:1;fill-rule:nonzero;stroke:none"
         d="m 59.199219,21.199219 c -4.8494,0 -9.083954,1.878911 -12.740235,5.615234 1.096586,0.576047 2.157496,1.252689 3.173828,2.052735 3.601563,2.835937 5.933594,6.5 7,10.96875 h 1.101563 c 3,0 5.765624,0.734374 8.300781,2.167968 2.53125,1.429688 4.566406,3.429688 6.03125,5.964844 0.313288,0.540755 0.587238,1.093096 0.835938,1.652344 2.506265,-3.057489 3.765625,-6.743618 3.765625,-10.953125 0,-2.367188 -0.46875,-4.632813 -1.367188,-6.800781 -0.902343,-2.167969 -2.167969,-4 -3.734375,-5.566407 C 70,24.734375 68.167969,23.464844 66,22.566406 63.832031,21.632812 61.566406,21.199219 59.199219,21.199219 Z"
         sodipodi:nodetypes="scccscccscscs" />
      <path
         style="stroke:none;fill-rule:nonzero;fill:#ffff00;fill-opacity:1"
         d="M 82.398438,38.667969"
         id="path29" />
      <path
         style="stroke:none;fill-rule:nonzero;fill:#ffff00;fill-opacity:1"
         d="m 82.398438,38.667969 c 0,0.765625 0.300781,1.398437 0.867187,1.933593 0.535156,0.53125 1.234375,0.796876 2.035156,0.796876 h 6.800781 c 0.765626,0 1.398438,-0.265626 1.933594,-0.765626 0.53125,-0.5 0.765625,-1.167968 0.765625,-1.964843 0,-0.800781 -0.265625,-1.46875 -0.765625,-2 -0.5,-0.535157 -1.167968,-0.835938 -1.933594,-0.835938 h -6.800781 c -0.800781,0 -1.46875,0.269531 -2.035156,0.835938 -0.597656,0.566406 -0.867187,1.230469 -0.867187,2 z"
         id="path27" />
      <path
         style="stroke:none;fill-rule:nonzero;fill:#ffff00;fill-opacity:1"
         d="m 77.5,59.699219 c 0,0.800781 0.265625,1.5 0.832031,2.101562 L 80.5,63.898438 c 0.5,0.535156 1.132812,0.800781 1.933594,0.800781 0.800781,0 1.464844,-0.265625 2,-0.832031 0.53125,-0.566407 0.800781,-1.234376 0.800781,-2.066407 0,-0.734375 -0.269531,-1.402343 -0.800781,-1.933593 l -2.167969,-2.167969 c -0.53125,-0.53125 -1.164063,-0.800781 -1.898437,-0.800781 -0.800782,0 -1.46875,0.269531 -2,0.800781 -0.566407,0.535156 -0.867188,1.199219 -0.867188,2 z"
         id="path25" />
      <path
         style="stroke:none;fill-rule:nonzero;fill:#ffff00;fill-opacity:1"
         d="m 74.867188,20.234375 c 0,0.867187 0.234374,1.53125 0.734374,2.066406 0.699219,0.53125 1.398438,0.800781 2.066407,0.800781 0.597656,0 1.265625,-0.269531 1.964843,-0.800781 l 4.765626,-4.765625 c 0.535156,-0.601562 0.800781,-1.300781 0.800781,-2.136718 0,-0.796876 -0.265625,-1.464844 -0.800781,-2 -0.53125,-0.53125 -1.199219,-0.796876 -1.964844,-0.796876 -0.800782,0 -1.433594,0.265626 -1.933594,0.796876 l -4.898438,4.769531 c -0.5,0.632812 -0.734374,1.296875 -0.734374,2.066406 z"
         id="path23" />
      <path
         style="stroke:none;fill-rule:nonzero;fill:#ffff00;fill-opacity:1"
         d="m 56.464844,12.601562 c 0,0.863282 0.269531,1.53125 0.769531,2.066407 0.5,0.53125 1.164063,0.765625 1.964844,0.765625 0.867187,0 1.535156,-0.265625 2.066406,-0.765625 0.535156,-0.535157 0.769531,-1.203125 0.769531,-2.066407 V 5.765625 c 0,-0.800781 -0.269531,-1.433594 -0.800781,-1.964844 -0.535156,-0.535156 -1.199219,-0.765625 -2.035156,-0.765625 -0.800781,0 -1.433594,0.265625 -1.964844,0.765625 -0.535156,0.5 -0.769531,1.164063 -0.769531,1.964844 z"
         id="path21" />
      <path
         style="stroke:none;fill-rule:nonzero;fill:#ffff00;fill-opacity:1"
         d="m 51.035156,30.199219 c 2.296875,-2.234375 5.03125,-3.332031 8.164063,-3.332031 3.300781,0 6.101562,1.132812 8.402343,3.433593 2.296876,2.300781 3.464844,5.066407 3.464844,8.367188 0,2.066406 -0.566406,4.132812 -1.699218,6.132812 C 66.132812,41.601562 62.265625,40 57.734375,40 h -1.066406 c -0.835938,-3.632812 -2.703125,-6.898438 -5.632813,-9.800781 z"
         id="path19" />
      <path
         style="stroke:none;fill-rule:nonzero;fill:#ffff00;fill-opacity:1"
         d="m 33.234375,15.433594 c 0,0.800781 0.265625,1.5 0.800781,2.101562 l 2.199219,2.132813 c 0.832031,0.632812 1.53125,0.898437 2.132813,0.832031 0.699218,0 1.300781,-0.300781 1.832031,-0.867188 C 40.734375,19.066406 41,18.367188 41,17.566406 41,16.765625 40.699219,16.101562 40.132812,15.601562 l -1.964843,-2.203124 c -0.601563,-0.53125 -1.269531,-0.796876 -2.035157,-0.796876 -0.800781,0 -1.5,0.265626 -2.066406,0.832032 -0.566406,0.53125 -0.832031,1.199218 -0.832031,2 z"
         id="path17" />
    </g>
    <g
       id="surface1-3"
       transform="translate(-10.332031,-0.03125)" />
    <g
       id="surface1-7"
       transform="translate(-10.332032,-0.03125)">
      <path
         style="fill:#000000;fill-opacity:1;fill-rule:nonzero;stroke:none"
         d="m 15.367188,56.265625 c 0,-3.832031 1.199218,-7.230469 3.597656,-10.230469 2.402344,-3 5.433594,-4.933594 9.136718,-5.769531 1.03125,-4.566406 3.398438,-8.300781 7.03125,-11.230469 3.632813,-2.933594 7.832032,-4.402344 12.535157,-4.402344 4.597656,0 8.699219,1.433594 12.296875,4.265626 3.601562,2.835937 5.933594,6.5 7,10.96875 h 1.101562 c 3,0 5.765625,0.734374 8.300782,2.167968 2.53125,1.429688 4.566406,3.429688 6.03125,5.964844 1.46875,2.535156 2.234374,5.265625 2.234374,8.265625 0,2.933594 -0.699218,5.667969 -2.097656,8.167969 -1.402344,2.5 -3.335937,4.5 -5.769531,6 -2.433594,1.5 -5.132813,2.300781 -8.03125,2.398437 H 31.367188 c -4.46875,-0.199219 -8.234376,-1.898437 -11.332032,-5.097656 -3.101562,-3.167969 -4.667968,-7 -4.667968,-11.46875 z m 5.699218,0 c 0,2.902344 1,5.402344 3,7.535156 2,2.132813 4.433594,3.265625 7.300782,3.433594 h 37.300781 c 2.867187,-0.132813 5.296875,-1.300781 7.296875,-3.433594 C 78,61.667969 79,59.132812 79,56.265625 79,53.332031 77.898438,50.832031 75.734375,48.699219 73.566406,46.566406 71,45.5 68,45.5 h -5.332031 c -0.367188,0 -0.566407,-0.199219 -0.566407,-0.601562 L 61.867188,43 C 61.5,39.398438 59.933594,36.367188 57.199219,33.933594 54.464844,31.5 51.300781,30.265625 47.667969,30.265625 c -3.632813,0 -6.835938,1.234375 -9.5,3.667969 C 35.464844,36.367188 33.933594,39.398438 33.601562,43 l -0.269531,1.898438 c 0,0.402343 -0.230469,0.601562 -0.664062,0.601562 h -1.769531 c -2.796876,0.332031 -5.132813,1.535156 -7,3.566406 -1.863282,2.035156 -2.832032,4.433594 -2.832032,7.199219 z m 0,0"
         id="path2-5" />
    </g>
  </g>
</svg>

<?xml version="1.0" encoding="UTF-8"?>
<svg xmlns="http://www.w3.org/2000/svg" xmlns:xlink="http://www.w3.org/1999/xlink" width="100px" height="100px" viewBox="0 0 100 100" version="1.1">
<g id="surface1">
<path style=" stroke:none;fill-rule:nonzero;fill:rgb(0%,0%,0%);fill-opacity:1;" d="M 5.199219 56.332031 C 5.199219 59.332031 5.933594 62.101562 7.398438 64.632812 C 8.867188 67.167969 10.867188 69.167969 13.398438 70.632812 C 15.933594 72.101562 18.667969 72.832031 21.632812 72.832031 L 57.734375 72.832031 C 60.699219 72.832031 63.464844 72.101562 66 70.632812 C 68.535156 69.167969 70.566406 67.167969 72.035156 64.632812 C 73.5 62.101562 74.265625 59.332031 74.265625 56.332031 C 74.265625 54.132812 73.800781 51.898438 72.867188 49.667969 C 75.398438 46.601562 76.667969 42.898438 76.667969 38.667969 C 76.667969 36.300781 76.199219 34.035156 75.300781 31.867188 C 74.398438 29.699219 73.132812 27.867188 71.566406 26.300781 C 70 24.734375 68.167969 23.464844 66 22.566406 C 63.832031 21.632812 61.566406 21.199219 59.199219 21.199219 C 54.265625 21.199219 49.964844 23.132812 46.265625 27 C 43.699219 25.535156 40.699219 24.800781 37.265625 24.800781 C 32.566406 24.800781 28.433594 26.265625 24.832031 29.167969 C 21.234375 32.066406 18.898438 35.800781 17.898438 40.332031 C 14.167969 41.199219 11.132812 43.101562 8.765625 46.101562 C 6.398438 49.101562 5.199219 52.5 5.199219 56.332031 Z M 10.898438 56.332031 C 10.898438 53.535156 11.832031 51.132812 13.699219 49.101562 C 15.566406 47.066406 17.898438 45.898438 20.699219 45.566406 L 22.367188 45.464844 C 22.765625 45.464844 23 45.265625 23 44.867188 L 23.234375 43.066406 C 23.699219 39.464844 25.265625 36.433594 27.933594 34.035156 C 30.601562 31.601562 33.734375 30.398438 37.300781 30.398438 C 40.964844 30.398438 44.167969 31.632812 46.867188 34.066406 C 49.601562 36.5 51.101562 39.5 51.433594 43.101562 L 51.667969 45.035156 C 51.734375 45.398438 51.964844 45.601562 52.367188 45.601562 L 57.734375 45.601562 C 60.667969 45.601562 63.199219 46.667969 65.332031 48.800781 C 67.464844 50.933594 68.535156 53.433594 68.535156 56.367188 C 68.535156 59.398438 67.464844 61.964844 65.367188 64.101562 C 63.265625 66.234375 60.699219 67.300781 57.765625 67.300781 L 21.632812 67.300781 C 18.699219 67.300781 16.199219 66.234375 14.066406 64.066406 C 11.964844 61.898438 10.898438 59.332031 10.898438 56.332031 Z M 33.234375 15.433594 C 33.234375 16.234375 33.5 16.933594 34.035156 17.535156 L 36.234375 19.667969 C 37.066406 20.300781 37.765625 20.566406 38.367188 20.5 C 39.066406 20.5 39.667969 20.199219 40.199219 19.632812 C 40.734375 19.066406 41 18.367188 41 17.566406 C 41 16.765625 40.699219 16.101562 40.132812 15.601562 L 38.167969 13.398438 C 37.566406 12.867188 36.898438 12.601562 36.132812 12.601562 C 35.332031 12.601562 34.632812 12.867188 34.066406 13.433594 C 33.5 13.964844 33.234375 14.632812 33.234375 15.433594 Z M 51.035156 30.199219 C 53.332031 27.964844 56.066406 26.867188 59.199219 26.867188 C 62.5 26.867188 65.300781 28 67.601562 30.300781 C 69.898438 32.601562 71.066406 35.367188 71.066406 38.667969 C 71.066406 40.734375 70.5 42.800781 69.367188 44.800781 C 66.132812 41.601562 62.265625 40 57.734375 40 L 56.667969 40 C 55.832031 36.367188 53.964844 33.101562 51.035156 30.199219 Z M 56.464844 12.601562 C 56.464844 13.464844 56.734375 14.132812 57.234375 14.667969 C 57.734375 15.199219 58.398438 15.433594 59.199219 15.433594 C 60.066406 15.433594 60.734375 15.167969 61.265625 14.667969 C 61.800781 14.132812 62.035156 13.464844 62.035156 12.601562 L 62.035156 5.765625 C 62.035156 4.964844 61.765625 4.332031 61.234375 3.800781 C 60.699219 3.265625 60.035156 3.035156 59.199219 3.035156 C 58.398438 3.035156 57.765625 3.300781 57.234375 3.800781 C 56.699219 4.300781 56.464844 4.964844 56.464844 5.765625 Z M 74.867188 20.234375 C 74.867188 21.101562 75.101562 21.765625 75.601562 22.300781 C 76.300781 22.832031 77 23.101562 77.667969 23.101562 C 78.265625 23.101562 78.933594 22.832031 79.632812 22.300781 L 84.398438 17.535156 C 84.933594 16.933594 85.199219 16.234375 85.199219 15.398438 C 85.199219 14.601562 84.933594 13.933594 84.398438 13.398438 C 83.867188 12.867188 83.199219 12.601562 82.433594 12.601562 C 81.632812 12.601562 81 12.867188 80.5 13.398438 L 75.601562 18.167969 C 75.101562 18.800781 74.867188 19.464844 74.867188 20.234375 Z M 77.5 59.699219 C 77.5 60.5 77.765625 61.199219 78.332031 61.800781 L 80.5 63.898438 C 81 64.433594 81.632812 64.699219 82.433594 64.699219 C 83.234375 64.699219 83.898438 64.433594 84.433594 63.867188 C 84.964844 63.300781 85.234375 62.632812 85.234375 61.800781 C 85.234375 61.066406 84.964844 60.398438 84.433594 59.867188 L 82.265625 57.699219 C 81.734375 57.167969 81.101562 56.898438 80.367188 56.898438 C 79.566406 56.898438 78.898438 57.167969 78.367188 57.699219 C 77.800781 58.234375 77.5 58.898438 77.5 59.699219 Z M 82.398438 38.667969 C 82.398438 39.433594 82.699219 40.066406 83.265625 40.601562 C 83.800781 41.132812 84.5 41.398438 85.300781 41.398438 L 92.101562 41.398438 C 92.867188 41.398438 93.5 41.132812 94.035156 40.632812 C 94.566406 40.132812 94.800781 39.464844 94.800781 38.667969 C 94.800781 37.867188 94.535156 37.199219 94.035156 36.667969 C 93.535156 36.132812 92.867188 35.832031 92.101562 35.832031 L 85.300781 35.832031 C 84.5 35.832031 83.832031 36.101562 83.265625 36.667969 C 82.667969 37.234375 82.398438 37.898438 82.398438 38.667969 Z M 82.398438 38.667969 "/>
</g>
</svg>
